Blue-Collection/blue-cloud2.svg

<svg xmlns="http://www.w3.org/2000/svg" viewBox="0 0 769 769" overflow="hidden" preserveAspectRatio="xMidYMid meet" id="eaf-685a-0"><defs><clipPath id="eaf-685a-1"><rect x="0" y="0" width="769" height="769"></rect></clipPath><style>#eaf-685a-0 * {animation: 9000ms linear infinite normal both running;offset-rotate:0deg}@keyframes eaf-685a-2{0%,100%{transform:none;offset-path:path("m280.7925 649.2521l121.2648 0l-121.2648 0")}}@keyframes eaf-685a-3{0%{offset-distance:0%;animation-timing-function:ease-in-out}55.56%{offset-distance:50%;animation-timing-function:ease-in-out}100%{offset-distance:100%}}@keyframes eaf-685a-4{0%,100%{transform:matrix(4,0,0,4,-1227.5182,-3094.8591)}}@keyframes eaf-685a-5{0%{opacity:1}40.56%{opacity:1;animation-timing-function:ease-in-out}52.78%{opacity:0.36;animation-timing-function:ease-in-out}59.26%,100%{opacity:1}}@keyframes eaf-685a-6{0%,100%{transform:none;offset-path:path("m307.2131 682.1983l19.7224 -9.0571l-19.7224 9.0571")}}@keyframes eaf-685a-7{0%{offset-distance:0%;animation-timing-function:ease-in-out}46.3%{offset-distance:50%;animation-timing-function:ease-in-out}100%{offset-distance:100%}}@keyframes eaf-685a-8{0%,100%{transform:translate(-313.3767px,-686.8947px)}}@keyframes eaf-685a-9{0%,100%{transform:none;offset-path:path("m321.6302 692.8428l-29.9514 7.9929l-4.7207 -3.7367l34.6721 -4.2562")}}@keyframes eaf-685a-10{0%{offset-distance:0%;animation-timing-function:ease-in-out}44.44%{offset-distance:43.0834%;animation-timing-function:ease-in-out}56.29%{offset-distance:51.4508%;animation-timing-function:ease-in-out}100%{offset-distance:100%}}@keyframes eaf-685a-11{0%,100%{transform:translate(-315.4761px,-688.1345px)}}</style></defs><g clip-path="url('#eaf-685a-1')" style="isolation: isolate;"><g><g transform="matrix(4 0 0 4 -807.7665 -2318.5264)"><path fill="#bee4fa" d="m394.19 676.01c0 24.06 0 48.13 0 72.19c0 11.03 -8.32 21.11 -19.18 23.18c-1.61 0.31 -3.27 0.48 -4.9 0.48c-47.97 0.03 -95.93 0.02 -143.9 0.02c-11.76 0 -22.02 -9.02 -23.56 -20.72c-0.14 -1.03 -0.23 -2.08 -0.23 -3.12c-0.01 -48.09 -0.01 -96.18 -0.01 -144.2599c0 -11.03 8.32 -21.1201 19.18 -23.1801c1.61 -0.31 3.27 -0.48 4.9 -0.48c48.01 -0.02 96.02 -0.02 144.02 -0.02c11.03 0 21.13 8.33 23.18 19.1801c0.3 1.61 0.48 3.27 0.48 4.9c0.03 23.94 0.02 47.89 0.02 71.83z"></path></g><g transform="matrix(4 0 0 4 -946.7257 -2445.607)" style="animation-name: eaf-685a-2, eaf-685a-3, eaf-685a-4, eaf-685a-5; animation-composition: replace, add, add, replace;"><path fill="#fff" stroke="#01507b" stroke-width="7" d="m390.5 707.96c-0.71 2.69 -1.18 5.48 -2.17 8.07c-4.24 11.0699 -14.77 18.1899 -26.6 18.1899c-32.13 0 -64.27 -0.0099 -96.4 0.01c-7.36 0.01 -13.85 -2.11 -18.8 -7.75c-6.05 -6.89 -7.65 -14.87 -4.5 -23.43c3.15 -8.56 9.55 -13.53 18.63 -14.91c0.88 -0.13 1.77 -0.22 2.65 -0.33c0.5 -2.63 0.8 -5.31 1.54 -7.86c4.42 -15.15 20.06 -23.79 35.2 -19.46c1.63 0.47 2.25 -0.01 3.03 -1.34c7.31 -12.41 20.43 -18.51 34.02 -16.84c14.77 1.82 26.36 12.69 29.52 27.07c0.46 2.09 0.58 4.26 0.72 6.41c0.07 0.96 0.26 1.38 1.32 1.7c12.32 3.69 19.62 11.81 21.52 24.63c0.04 0.28 0.21 0.54 0.32 0.8c0 1.68 0 3.36 0 5.04z" transform="matrix(1.1735 0 0 1.1735 -40.1284 -123.2216)"></path></g><g transform="matrix(4 0 0 4 -819.6229 -2295.2445)"><g><path fill="#8f8f8f" d="m386.5855 710.3889c-0.6737 2.7575 -0.1617 5.5278 -1.1011 8.1828c-4.023 11.348 -15.2126 15.6481 -26.4371 15.6481c-30.4856 0 -60.9806 -0.0103 -91.4662 0.0103c-6.9833 0.0103 -13.1411 -2.163 -17.8378 -7.9446c-5.7404 -7.063 -11.7876 -16.1968 -8.7989 -24.9717c0.8527 -4.918 5.4292 -12.0939 14.2697 -16.2115c0.835 -0.1333 5.5071 -2.859 6.3421 -2.9717c0.4744 -2.696 2.2047 -6.1122 2.9068 -8.7263c4.0984 -12.003 21.6565 -20.1794 34.2579 -18.6484c1.5466 0.4818 1.7076 0.5884 2.4477 -0.775c6.9359 -12.7217 21.6148 -15.691 34.5092 -13.9791c14.6574 1.8657 28.874 13.4421 33.3463 30.2106c0.4365 2.1425 0.4687 3.4067 4.7281 4.7874c9.287 3.5009 8.6306 4.3839 9.6364 4.7119c5.7417 8.3837 1.394 7.9952 3.1967 21.1371c0.0379 0.287 -0.0167 1.9526 0 3.0778c0 1.7222 0 4.7403 0 6.4625z" transform="translate(-6.1636 -4.6964)" style="animation-name: eaf-685a-6, eaf-685a-7, eaf-685a-8; animation-composition: replace, add, add;"></path><path fill="#d6d6d6" stroke="#01507b" stroke-width="4" d="m390.5 707.96c-0.71 2.69 -1.18 5.48 -2.17 8.07c-4.24 11.0699 -14.77 18.1899 -26.6 18.1899c-32.13 0 -64.27 -0.0099 -96.4 0.01c-7.36 0.01 -13.85 -2.11 -18.8 -7.75c-6.05 -6.89 -7.65 -14.87 -4.5 -23.43c3.15 -8.56 9.55 -13.53 18.63 -14.91c0.88 -0.13 1.77 -0.22 2.65 -0.33c0.5 -2.63 0.8 -5.31 1.54 -7.86c4.42 -15.15 20.06 -23.79 35.2 -19.46c1.63 0.47 2.25 -0.01 3.03 -1.34c7.31 -12.41 20.43 -18.51 34.02 -16.84c14.77 1.82 26.36 12.69 29.52 27.07c0.46 2.09 0.58 4.26 0.72 6.41c0.07 0.96 0.26 1.38 1.32 1.7c12.32 3.69 19.62 11.81 21.52 24.63c0.04 0.28 0.21 0.54 0.32 0.8c0 1.68 0 3.36 0 5.04z" transform="translate(6.1541 4.7083)" style="animation-name: eaf-685a-9, eaf-685a-10, eaf-685a-11; animation-composition: replace, add, add;"></path></g></g><path fill="#fff" d="m-14.2233 0c0 0 14.2233 -20.4682 14.2233 -28.301507bc0 -7.8873 31.6264 -26.9442 31.6264 -26.9442c0 0 18.5877 -9.6758 38.3445 -9.6758q19.7567 0 41.9498 9.6758l39.5113 39.066q9.302 43.2446 -39.5113 16.2337q-11.0302 -26.1669 -42.8865 -16.2337l-69.0341 35.8066l0 0" transform="translate(315.4659 471.7183)"></path></g></g></svg>

<?xml version="1.0" encoding="utf-8"?>
<svg xmlns="http://www.w3.org/2000/svg" viewBox="0 0 769 769" overflow="hidden" preserveAspectRatio="xMidYMid meet" id="eaf-685a-0">
  <defs>
    <clipPath id="eaf-685a-1">
      <rect x="0" y="0" width="769" height="769"/>
    </clipPath>
    <style>#eaf-685a-0 * {animation: 9000ms linear infinite normal both running;offset-rotate:0deg}@keyframes eaf-685a-2{0%,100%{transform:none;offset-path:path("m280.7925 649.2521l121.2648 0l-121.2648 0")}}@keyframes eaf-685a-3{0%{offset-distance:0%;animation-timing-function:ease-in-out}55.56%{offset-distance:50%;animation-timing-function:ease-in-out}100%{offset-distance:100%}}@keyframes eaf-685a-4{0%,100%{transform:matrix(4,0,0,4,-1227.5182,-3094.8591)}}@keyframes eaf-685a-5{0%{opacity:1}40.56%{opacity:1;animation-timing-function:ease-in-out}52.78%{opacity:0.36;animation-timing-function:ease-in-out}59.26%,100%{opacity:1}}@keyframes eaf-685a-6{0%,100%{transform:none;offset-path:path("m307.2131 682.1983l19.7224 -9.0571l-19.7224 9.0571")}}@keyframes eaf-685a-7{0%{offset-distance:0%;animation-timing-function:ease-in-out}46.3%{offset-distance:50%;animation-timing-function:ease-in-out}100%{offset-distance:100%}}@keyframes eaf-685a-8{0%,100%{transform:translate(-313.3767px,-686.8947px)}}@keyframes eaf-685a-9{0%,100%{transform:none;offset-path:path("m321.6302 692.8428l-29.9514 7.9929l-4.7207 -3.7367l34.6721 -4.2562")}}@keyframes eaf-685a-10{0%{offset-distance:0%;animation-timing-function:ease-in-out}44.44%{offset-distance:43.0834%;animation-timing-function:ease-in-out}56.29%{offset-distance:51.4508%;animation-timing-function:ease-in-out}100%{offset-distance:100%}}@keyframes eaf-685a-11{0%,100%{transform:translate(-315.4761px,-688.1345px)}}</style>
  </defs>
  <g clip-path="url('#eaf-685a-1')" style="isolation: isolate;">
    <g>
      <g transform="matrix(4 0 0 4 -807.7665 -2318.5264)">
        <path fill="#bee4fa" d="m394.19 676.01c0 24.06 0 48.13 0 72.19c0 11.03 -8.32 21.11 -19.18 23.18c-1.61 0.31 -3.27 0.48 -4.9 0.48c-47.97 0.03 -95.93 0.02 -143.9 0.02c-11.76 0 -22.02 -9.02 -23.56 -20.72c-0.14 -1.03 -0.23 -2.08 -0.23 -3.12c-0.01 -48.09 -0.01 -96.18 -0.01 -144.2599c0 -11.03 8.32 -21.1201 19.18 -23.1801c1.61 -0.31 3.27 -0.48 4.9 -0.48c48.01 -0.02 96.02 -0.02 144.02 -0.02c11.03 0 21.13 8.33 23.18 19.1801c0.3 1.61 0.48 3.27 0.48 4.9c0.03 23.94 0.02 47.89 0.02 71.83z"/>
      </g>
      <g transform="matrix(4 0 0 4 -946.7257 -2445.607)" style="animation-name: eaf-685a-2, eaf-685a-3, eaf-685a-4, eaf-685a-5; animation-composition: replace, add, add, replace;">
        <path fill="#fff" stroke="#01507b" stroke-width="7" d="m390.5 707.96c-0.71 2.69 -1.18 5.48 -2.17 8.07c-4.24 11.0699 -14.77 18.1899 -26.6 18.1899c-32.13 0 -64.27 -0.0099 -96.4 0.01c-7.36 0.01 -13.85 -2.11 -18.8 -7.75c-6.05 -6.89 -7.65 -14.87 -4.5 -23.43c3.15 -8.56 9.55 -13.53 18.63 -14.91c0.88 -0.13 1.77 -0.22 2.65 -0.33c0.5 -2.63 0.8 -5.31 1.54 -7.86c4.42 -15.15 20.06 -23.79 35.2 -19.46c1.63 0.47 2.25 -0.01 3.03 -1.34c7.31 -12.41 20.43 -18.51 34.02 -16.84c14.77 1.82 26.36 12.69 29.52 27.07c0.46 2.09 0.58 4.26 0.72 6.41c0.07 0.96 0.26 1.38 1.32 1.7c12.32 3.69 19.62 11.81 21.52 24.63c0.04 0.28 0.21 0.54 0.32 0.8c0 1.68 0 3.36 0 5.04z" transform="matrix(1.1735 0 0 1.1735 -40.1284 -123.2216)"/>
      </g>
      <g transform="matrix(4 0 0 4 -819.6229 -2295.2445)">
        <g>
          <path fill="#8f8f8f" d="M 373.752 675 C 409.399 691.871 388.455 734.619 359.047 734.22 C 328.719 733.809 299.308 734.417 267.581 734.23 C 260.598 734.189 254.44 732.067 249.743 726.286 C 244.003 719.223 237.956 710.089 240.944 701.314 C 241.797 696.396 246.374 689.22 255.214 685.102 C 256.049 684.969 260.721 682.243 261.556 682.131 C 262.031 679.435 263.761 676.018 264.463 673.404 C 268.561 661.401 286.12 653.225 298.721 654.756 C 300.268 655.238 300.429 655.344 301.169 653.981 C 308.105 641.259 322.783 638.29 335.678 640.002 C 350.335 641.868 364.552 653.444 369.024 670.212 C 369.461 672.355 369.705 673.085 373.752 675 Z" transform="translate(-6.1636 -4.6964)" style="animation-name: eaf-685a-6, eaf-685a-7, eaf-685a-8; animation-composition: replace, add, add; stroke-linecap: round; stroke-linejoin: round;"/>
          <path fill="#d6d6d6" stroke="#01507b" stroke-width="4" d="m390.5 707.96c-0.71 2.69 -1.18 5.48 -2.17 8.07c-4.24 11.0699 -14.77 18.1899 -26.6 18.1899c-32.13 0 -64.27 -0.0099 -96.4 0.01c-7.36 0.01 -13.85 -2.11 -18.8 -7.75c-6.05 -6.89 -7.65 -14.87 -4.5 -23.43c3.15 -8.56 9.55 -13.53 18.63 -14.91c0.88 -0.13 1.77 -0.22 2.65 -0.33c0.5 -2.63 0.8 -5.31 1.54 -7.86c4.42 -15.15 20.06 -23.79 35.2 -19.46c1.63 0.47 2.25 -0.01 3.03 -1.34c7.31 -12.41 20.43 -18.51 34.02 -16.84c14.77 1.82 26.36 12.69 29.52 27.07c0.46 2.09 0.58 4.26 0.72 6.41c0.07 0.96 0.26 1.38 1.32 1.7c12.32 3.69 19.62 11.81 21.52 24.63c0.04 0.28 0.21 0.54 0.32 0.8c0 1.68 0 3.36 0 5.04z" transform="translate(6.1541 4.7083)" style="animation-name: eaf-685a-9, eaf-685a-10, eaf-685a-11; animation-composition: replace, add, add;"/>
        </g>
      </g>
    </g>
  </g>
</svg>
